X:2938
T:Engelska efter Kapten Lundholm
S:Orust
S:Efter Carin Funseth
Z:[[http://www.bluerose.karenlmyers.org/IncipitsEngelska2.html|Karen Myers (#2938)]]
Z:Upptecknad 6/2007
M:2/4
L:1/16
R:Engelska
K:A
d2 |: cBce dcdf | edcA E2Ad | cABc defg | aece agfe |
cBce dcdf | edcA E2Ad | cABc defg |1 a2a2 a2ed :|2 a2a2 a2e2 ||
|: a2c'e a2c'e | b2d'e b2d'e | a2c'e a2c'e | efed cBA2 | fdfa ecea |
fdfa ecea | fdfa gegb |1 a2a2 a2e2 :|2 a2a2 a2 z2 |]
